X:54
T: Druimfhionn Donn Dílis, S. 143
N: I0553
O: Irland
S: O'SULLIVAN, Donal: Song of the Irish]
R: Heimatlied]
M: 3/4
L: 1/8
K: C
EF | G2G2c2 | c2d2ec | d2B2G2 | G4
GA | B2G2G2 | B2c2dc | B2G2F2 | D4
DF | E2D2C2 | C2D2GA | B2A2G2 | D4
Bc | d2c2B2 | G2A2BG | F2D2C2 | C4

